;Drop Bed
;G91
;G1 Z2 F2000
;G90

;brush in
if move.axes[1].machinePosition > 150
	G91
	G1 Y32 F50000
	G1 Y-25 	F5000
	G1 Y25		F10000
	G1 Y-25 	F10000
	G1 Y25		F15000
	G1 Y-25		F50000
	G1 Y25		F50000
	G1 Y-25 	F50000
	G1 Y25		F50000
	G1 Y-25		F50000
	G1 Y25		F50000
	G1 Y-32 F50000
	G90
else
	echo
;G1 X-41.5 Y155 F50000

;Brush Out
;G1 X-41.5 Y155 F50000
;G1 X-32.5 Y150 F50000
;G1 X-41.5 Y145 F50000
;G1 X-32.5 Y140 F50000
;G1 X-41.5 Y135 F50000
;G1 X-32.5 Y130 F50000
;G1 X-41.5 Y125 F50000
